X: 23559
T: Light And Airy
R: jig
M: 6/8
K: Dmajor
d2 A d2 A|def ecA|B2 d A2 F|GEE D3|
d2 A d2 A|def ecA|B2 d A2 G|FDD D3:|
FDD AFF|dAA fdd|FDD AFF|GEE E3|
FDD AFF|dAA fdd|Bcd A2 G|FDD D3:|
fed ecA|fed ecA|Bcd A2 F|GEE E3|
fed ecA|fed ecA|B2 d A2 G|FDD D3:|

